icons/DynamoDB-Dark.svg

<svg width="256" height="256" viewBox="0 0 256 256" fill="none" xmlns="http://www.w3.org/2000/svg">
<rect width="256" height="256" rx="60" fill="#242938"/>
<path d="M154.197 229.852H156.664L196.925 209.719L197.595 208.772V48.0684L196.925 47.1164L156.664 27H154.167L154.197 229.852Z" fill="#5294CF"/>
<path d="M101.802 229.852H99.3013L59.0741 209.719L58.2578 208.315L57.8436 48.8869L59.0741 47.1164L99.3013 27H101.833L101.802 229.852Z" fill="#1F5B98"/>
<path d="M99.3723 27H156.625V229.852H99.3723V27Z" fill="#2D72B8"/>
<path d="M218 123.869L216.639 123.567L197.214 121.756L196.925 121.899L156.628 120.288H99.3723L59.0741 121.899V91.1698L59.0319 91.1923L59.0741 91.1023L99.3723 81.7648H156.628L196.925 91.1023L211.739 98.9766V93.9141L218 93.2293L217.352 91.965L197.529 77.7907L196.925 77.9869L156.628 65.5001H99.3723L59.0741 77.9869V47.1162L38 71.805V93.3671L38.1631 93.2489L44.2606 93.9141V99.0807L38 102.431V123.886L38.1631 123.869L44.2606 123.959V132.964L38.9998 133.042L38 132.947V154.41L44.2606 157.776V163.002L38.2623 163.665L38 163.468V185.026L59.0741 209.719V178.851L99.3723 191.338H156.628L197.044 178.814L197.581 179.05L217.143 165.084L218 163.693L211.739 163.002V157.881L210.919 157.553L197.529 164.771L197.044 165.783L156.628 175.067V175.078H99.3723V175.067L59.0741 165.744V134.902L99.3723 136.508V136.547H156.628L196.925 134.902L197.843 135.324L216.672 133.703L218 133.054L211.739 132.964V123.959L218 123.869Z" fill="#1A476F"/>
<path d="M196.925 178.851V209.719L218 185.027V163.609L197.047 178.815L196.925 178.851Z" fill="#2D72B8"/>
<path d="M196.925 165.812L197.047 165.784L218 154.514V132.964L196.925 134.902V165.812Z" fill="#2D72B8"/>
<path d="M197.047 91.1307L196.925 91.1025V121.899L218 123.869V102.329L197.047 91.1307Z" fill="#2D72B8"/>
<path d="M197.047 78.1078L218 93.2293V71.8107L196.925 47.1162V77.9869L197.047 78.0291V78.1078Z" fill="#2D72B8"/>
</svg>

<svg xmlns="http://www.w3.org/2000/svg" width="256" height="256" fill="none" viewBox="0 0 256 256"><rect width="256" height="256" fill="#242938" rx="60"/><path fill="#5294CF" d="M154.2 229.85h2.46l40.27-20.13.66-.95V48.07l-.66-.95L156.66 27h-2.5z"/><path fill="#1F5B98" d="M101.8 229.85h-2.5l-40.23-20.13-.81-1.4-.42-159.43 1.23-1.77L99.3 27h2.53z"/><path fill="#2D72B8" d="M99.37 27h57.26v202.85H99.37z"/><path fill="#1A476F" d="m218 123.87-1.36-.3-19.43-1.81-.28.14-40.3-1.61H99.37l-40.3 1.6V91.18l-.04.02.04-.09 40.3-9.34h57.26l40.3 9.34 14.8 7.88V93.9l6.27-.68-.65-1.27-19.82-14.17-.6.2-40.3-12.49H99.37l-40.3 12.49V47.12L38 71.8v21.56l.16-.12 6.1.66v5.17L38 102.43v21.46l.16-.02 6.1.09v9l-5.26.08-1-.1v21.47l6.26 3.37V163l-6 .66-.26-.2v21.57l21.07 24.69v-30.87l40.3 12.49h57.26l40.41-12.53.54.24 19.56-13.97.86-1.39-6.26-.69v-5.12l-.82-.33-13.4 7.22-.48 1.01-40.41 9.29H99.37l-40.3-9.33V134.9l40.3 1.6v.05h57.26l40.3-1.65.91.42 18.83-1.62 1.33-.65-6.26-.09v-9z"/><path fill="#2D72B8" d="M196.93 178.85v30.87l21.07-24.7v-21.41l-20.95 15.2zm0-13.04.12-.03L218 154.51v-21.55l-21.07 1.94zm.12-74.68-.12-.03v30.8l21.07 1.97v-21.54zm0-13.03L218 93.24V71.8l-21.07-24.7V78l.12.04z"/></svg>
